X: 1
T: the Coalminer's Reel
R: reel
Z: 2012 John Chambers <jc:trillian.mit.edu>
S: Amalgam of various online versions.
M: C|
L: 1/8
K: D
DB, |\
"D"A,DFD "A7"E2EF | "D"ABAF "A7"EDB,D |\
"D"A,DFD "A7"EDFA | "D"dBAF "A7"EDB,D |
"D"A,DFD "A7"EDEF | "D"ABAF "A7"EDB,D |\
"D"A,DFD "A7"EDFA | "A7"dBAF "D"D2 :|
|: (3ABc |\
"D"~d3B "A7"A2dB | "D"A2FD "A7"EDB,D |\
"D"~d3B "A7"ABde | "D"fedf "A7"e2de |
"D"fd~d2 "G"edBd | "D"ABAF "G"EDB,D |\
"D"A,DFD "A7"EDFA | "A7"dBAF "D"D2 :|

%%sep 1 1 500
